X: 554
T: Vulcan's Cave. RH.496
T: King of the Cannibal Islands, aka. RH.496
T: Cumberland Reel, aka. RH.496
M: 6/8
L: 1/8
Q: 120
C: King of the Cannibal Islands,Cumberland Reel
S: Rev.R.Harrison's MS, c1815, Cumbria
R: Jig
O: England
A: Temple Sowerby, Cumbria
N: Nottingham Swing, Hilly-go Filly-go all the way, aka.
Z: vmp. Simon Wilson..
K: G Major
|: d | 
b2 a g2 f | f2 e d2 B | cBc A2 c | B2 c d2 G |
e2 G g2 G | d2 G g2 G | fga def | g3 g2 :|
.b2 .b .b2 .a | .b2 .b .b2 .a | .b2 .b .c'2 .b | a>ba a2 z |
g2 g g2 f | g2 g g2 f | g2 g a2 g | fga def |
g3 fed | e2 f g2 z | g3 fed | e2 f g2 b |
a2 g a2 b | a2 g a2 b | a2 d' def | g3 g2 ||
